!!!OTL: Graf und Nonne (Die Nonne) Steh ich auf hohe Felsen,
!!!ARE: Europa, Osteuropa, Ungarn, Tata, Tatabanya
!!!YOR: 8, S. 103
!!    1976 aufgezeichnet
!!!SCT: Q0155o
!!!YEM: Copyright 1995, estate of Helmut Schaffrath.
**kern
*ICvox
*Ivox
*M6/8
*k[f#]
*G:
{8d
=1
4g
8g
4g
8b
=2
4.a
4a}
{16d
16d
=3
8b
8b
8b
8dd
8cc
8b
=4
4.a
4r}
{8a
=5
8cc
8cc
8cc
8cc
8b
8a
=6
4g
8a
4b}
{8g
=7
8d
8b
8b
4b
8a
=8
4.g
4r}
==
!!!AGN: Ballade, Standesunterschied, vergebliche Werbung, Liebe, Klage, Tod
!!!ONB: ESAC (Essen Associative Code) Database: BALLADE
!!!AMT: compound duple
!!!AIN: vox
!!!EED: Helmut Schaffrath
!!!EEV: 1.0
*-
